icons/Logos/behance-fill.svg

<svg viewBox="0 0 24 24" xmlns="http://www.w3.org/2000/svg"><path d="M7.44262 5.3501C8.08197 5.3501 8.67213 5.39957 9.21311 5.54798C9.7541 5.64692 10.1967 5.8448 10.5902 6.09215C10.9836 6.3395 11.2787 6.68579 11.4754 7.13102C11.6721 7.57625 11.7705 8.12042 11.7705 8.71406C11.7705 9.40664 11.623 10.0003 11.2787 10.4455C10.9836 10.8907 10.4918 11.2865 9.90164 11.5833C10.7377 11.8307 11.377 12.2759 11.7705 12.8695C12.1639 13.4632 12.4098 14.2052 12.4098 15.0462C12.4098 15.7388 12.2623 16.3324 12.0164 16.8271C11.7705 17.3218 11.377 17.7671 10.9344 18.0639C10.4918 18.3607 9.95082 18.608 9.36066 18.7565C8.77049 18.9049 8.18033 19.0038 7.59016 19.0038H1V5.3501H7.44262ZM7.04918 10.8907C7.59016 10.8907 8.03279 10.7423 8.37705 10.495C8.72131 10.2476 8.86885 9.80239 8.86885 9.25822C8.86885 8.96141 8.81967 8.66458 8.72131 8.4667C8.62295 8.26883 8.47541 8.12042 8.27869 7.97201C8.08197 7.87307 7.88525 7.77413 7.63934 7.72466C7.39344 7.67519 7.14754 7.67519 6.85246 7.67519H4V10.8907H7.04918ZM7.19672 16.7282C7.4918 16.7282 7.78689 16.6787 8.03279 16.6292C8.27869 16.5798 8.52459 16.4808 8.72131 16.3324C8.91803 16.184 9.06557 16.0356 9.21311 15.7883C9.31148 15.5409 9.40984 15.2441 9.40984 14.8978C9.40984 14.2052 9.21312 13.7105 8.81967 13.3642C8.42623 13.0674 7.88525 12.919 7.2459 12.919H4V16.7282H7.19672ZM16.6885 16.6787C17.082 17.0745 17.6721 17.2724 18.459 17.2724C19 17.2724 19.4918 17.1239 19.8852 16.8766C20.2787 16.5798 20.5246 16.283 20.623 15.9861H23.0328C22.6393 17.1734 22.0492 18.0144 21.2623 18.5586C20.4754 19.0533 19.541 19.3501 18.4098 19.3501C17.6229 19.3501 16.9344 19.2017 16.2951 18.9543C15.6557 18.707 15.1639 18.3607 14.7213 17.866C14.2787 17.4208 13.9344 16.8766 13.7377 16.2335C13.4918 15.5904 13.3934 14.8978 13.3934 14.1063C13.3934 13.3642 13.4918 12.6717 13.7377 12.0285C13.9836 11.3854 14.3279 10.8413 14.7705 10.3466C15.2131 9.90133 15.7541 9.50557 16.3443 9.25822C16.9836 9.01087 17.6229 8.86246 18.4098 8.86246C19.2459 8.86246 19.9836 9.01088 20.623 9.35716C21.2623 9.70345 21.7541 10.0992 22.1475 10.6929C22.541 11.237 22.8361 11.8801 23.0328 12.5727C23.1311 13.2653 23.1803 13.9579 23.1311 14.7494H16C16 15.5409 16.2951 16.283 16.6885 16.6787ZM19.7869 11.4844C19.4426 11.1381 18.9016 10.9402 18.2623 10.9402C17.8197 10.9402 17.4754 11.0391 17.1803 11.1876C16.8852 11.336 16.6885 11.5338 16.4918 11.7317C16.2951 11.9296 16.1967 12.177 16.1475 12.4243C16.0984 12.6717 16.0492 12.8695 16.0492 13.0674H20.4754C20.3771 12.3254 20.1311 11.8307 19.7869 11.4844ZM15.459 6.29003H20.9672V7.62572H15.459V6.29003Z"/></svg>

<svg xmlns="http://www.w3.org/2000/svg" viewBox="0 0 24 24">
    <g>
        <path fill="none" d="M0 0h24v24H0z"/>
        <path fill-rule="nonzero" d="M7.443 5.35c.639 0 1.23.05 1.77.198a3.83 3.83 0 0 1 1.377.544c.394.247.689.594.885 1.039.197.445.295.99.295 1.583 0 .693-.147 1.286-.491 1.731-.295.446-.787.841-1.377 1.138.836.248 1.475.693 1.868 1.286.394.594.64 1.336.64 2.177 0 .693-.148 1.286-.394 1.781-.246.495-.639.94-1.082 1.237a5.078 5.078 0 0 1-1.573.692c-.59.149-1.18.248-1.77.248H1V5.35h6.443zm-.394 5.54c.541 0 .984-.148 1.328-.395.344-.247.492-.693.492-1.237 0-.297-.05-.594-.148-.791-.098-.198-.246-.347-.442-.495-.197-.099-.394-.198-.64-.247-.246-.05-.491-.05-.787-.05H4v3.216h3.05zm.148 5.838c.295 0 .59-.05.836-.099a1.72 1.72 0 0 0 .688-.297 1.76 1.76 0 0 0 .492-.544c.098-.247.197-.544.197-.89 0-.693-.197-1.188-.59-1.534-.394-.297-.935-.445-1.574-.445H4v3.81h3.197zm9.492-.05c.393.396.983.594 1.77.594.541 0 1.033-.148 1.426-.395.394-.297.64-.594.738-.891h2.41c-.394 1.187-.984 2.028-1.77 2.572-.788.495-1.722.792-2.853.792a5.753 5.753 0 0 1-2.115-.396 3.93 3.93 0 0 1-1.574-1.088 3.93 3.93 0 0 1-.983-1.633c-.246-.643-.345-1.335-.345-2.127 0-.742.099-1.434.345-2.078a5.34 5.34 0 0 1 1.032-1.682c.443-.445.984-.84 1.574-1.088a5.49 5.49 0 0 1 2.066-.396c.836 0 1.574.149 2.213.495.64.346 1.131.742 1.525 1.336a6.01 6.01 0 0 1 .885 1.88c.098.692.147 1.385.098 2.176H16c0 .792.295 1.534.689 1.93zm3.098-5.194c-.344-.346-.885-.544-1.525-.544-.442 0-.787.099-1.082.247-.295.149-.491.347-.688.545a1.322 1.322 0 0 0-.344.692c-.05.248-.099.445-.099.643h4.426c-.098-.742-.344-1.236-.688-1.583zM15.459 6.29h5.508v1.336H15.46V6.29z"/>
    </g>
</svg>
